X: 29
T: No_122_War_Dance_Song.krn
N: Derived from No_122_War_Dance_Song.krn
%%abc-version 2.0
%%abcx-abcm2ps-target-version 5.9.1 (29 Sep 2008)
%%abc-creator hum2abc beta
%%abcx-conversion-date 2019/03/15 08:35:44
%%humdrum-veritas 2170648922
%%humdrum-veritas-data 2128137189
%%linebreak <none>
%%barnumbers 0
L: 1/16
M: 2/4
K: G clef=bass
[K:clef=bass][M:2/4]z4z2 DD [I:setbarnb 2]| 
D3DB,4 | 
D8- | 
D4B, z DD | 
D3B,B,4 | 
B,8- | 
B,2 z B,B,4 | 
B,8- | 
B,4z2 DD | 
D3B,B,4 ||  
[M:3/4]B,8-B,2A,B, ||  
[M:3/8]G,3E,E,2 ||  
[M:2/4]D,4D,4 | 
D,4B,, z D,D, ||  
[M:3/8]D,3B,,B,,2 ||  
[M:2/4]D,4D,4 | 
D,4B,, z D,D, ||  
[M:3/8]D,3B,,B,,2 ||  
[M:2/4]B,,4B,,4 | 
B,,4B,,3B,, | 
B,,4z4 :|]  
[M:3/4]D4B,B,2B, B,2A, z ||  
[M:2/4]B,4B,2A,A, | 
G,2E,2-E,4 | 
G,4E,E,2D, ||  
[M:3/4]D,2D,2 D,2D,2 D, z D,D, | 
[M:3/8]D,4B,,2 ||  
[M:2/4]D,4D,4 | 
D,4B,, z D,D, ||  
[M:3/8]D,4B,,2 ||  
[M:2/4]B,,4B,,4 | 
B,,8 |]  



